svgs/teamsnap.svg

<svg width="192" height="192" viewBox="0 0 192 192" fill="none" xmlns="http://www.w3.org/2000/svg">
<path d="M83.5737 24C80.0418 24 77.2739 27.0356 77.5992 30.5526L82.1301 79.5429L39.8458 60.1779C36.6273 58.7039 32.8388 60.3224 31.6788 63.667L23.2668 87.9214C22.0704 91.371 24.2065 95.0805 27.7906 95.7772L73.911 104.743L40.0421 141.815C37.582 144.508 38.0737 148.755 41.0841 150.814L61.0722 164.488C63.8769 166.407 67.7138 165.616 69.5306 162.744L95.4863 121.714L119.01 162.474C120.738 165.47 124.635 166.387 127.518 164.478L148.358 150.681C151.375 148.684 151.951 144.49 149.584 141.753L117.575 104.743L164.531 95.7026C168.002 95.0343 170.146 91.5259 169.157 88.1325L162.097 63.8985C161.093 60.4532 157.31 58.6535 154.004 60.0489L107.815 79.5429L112.794 30.6073C113.153 27.0717 110.378 24 106.824 24H83.5737Z" stroke="black" stroke-width="12"/>
</svg>

<svg width="192" height="192" fill="none" xmlns="http://www.w3.org/2000/svg"><path d="M83.574 24a6 6 0 0 0-5.975 6.553l4.531 48.99-42.284-19.365a6 6 0 0 0-8.167 3.489l-8.412 24.254c-1.197 3.45.94 7.16 4.524 7.856l46.12 8.966-33.869 37.072c-2.46 2.693-1.968 6.94 1.042 8.999l19.988 13.674a6 6 0 0 0 8.459-1.744l25.955-41.03 23.524 40.76a5.999 5.999 0 0 0 8.508 2.004l20.84-13.797c3.017-1.997 3.593-6.191 1.226-8.928l-32.009-37.01 46.956-9.04a6 6 0 0 0 4.626-7.57l-7.06-24.234a6 6 0 0 0-8.093-3.85l-46.189 19.494 4.979-48.936a6 6 0 0 0-5.97-6.607h-23.25Z" stroke="#000" stroke-width="12"/></svg>
